!!!!SEGMENT: pl-sa--377-a-viii-17--004_anonim--wesolle-i-wdzieczne.krn
!!!cenid: 17xx:1726
!!!COM: Anonim
!!!COM-rismID: pe30004985
!!!CDT:
!!!CNT:
!!!OTL: Wesołe i wdzięczne
!!!PDT:
!!!AGN: Sacred
!!!SMS-siglum: PL-SA
!!!SMS-shelfmark: 377/A VIII 17
!!!SMS-shelfwork: 004 W
!!!SMS-variant: str. 6
!!!SMS-altvar: str. 18
!!!NIFC-rismSourceID: 1001077378
!!!NIFC-islandoraID:
!!!URL-pdf-islandora:
!!!URL-scan: https://bc.bdsandomierz.pl/dlibra/publication/1681/edition/1649/content @EN{Scan in the Sandomierz Diocese Digital Library} @PL{Skany w portalu Cyfrowa Biblioteka Diecezjalna w Sandomierzu}
!!!ONB-nifc: UWAGA: str. 6
!!!AIN: 1 soprn
!!!key:
**kern	**text	**text	**text	**text	**text	**text
*I"Canto	*	*	*	*	*	*
*I'S	*	*	*	*	*	*
*Isoprn	*	*	*	*	*	*
*ICvox	*	*	*	*	*	*
*clefC1	*	*	*	*	*	*
*k[]	*	*	*	*	*	*
*c:	*	*	*	*	*	*
*M3/2	*	*	*	*	*	*
*>[A,A,B,A,A,B,A,A,B]	*	*	*	*	*	*
=1	=1	=1	=1	=1	=1	=1
*>A	*	*	*	*	*	*
2r	.	.	.	.	.	.
2r	.	.	.	.	.	.
2g/	1. We-	Na	2 Try-	Gdysz	3 O	Nie-
=2	=2	=2	=2	=2	=2	=2
1cc	-so-	god-	-um-	ſię	Mat-	-chaÿ
2g/	-łe-	-ne	-fuÿ	iuz	-ko	nas
=3	=3	=3	=3	=3	=3	=3
2r	.	.	.	.	.	.
2r	.	.	.	.	.	.
(4ee\	-ÿ	tey	try-	kro-	Nas	Twa
4ff\)	.	.	.	.	.	.
=4	=4	=4	=4	=4	=4	=4
1gg	wdzię-	ſwię-	-um-	-lo-	li	mi-
(4ff\	-czne	-tey	-fuÿ	-wą	wſzy-	-łosc
4ee\)	.	.	.	.	.	.
=5	=5	=5	=5	=5	=5	=5
*2\right	*	*	*	*	*	*
2.dd\	zſtąp-	Mat-	O	Ma-	-stkich	na
4cc\	-cie	-ki	zie-	-ry-	Prze-	wie-
4dd\	z_nie-	wych-	-mii	-a	-ſli-	-ki
4ee\	-ba	-wa-	ſzczę-	na-	-czna	nie
=6	=6	=6	=6	=6	=6	=6
2cc\	pie-	-le-	-ſli-	-zy-	Ma-	mi-
1cc	-nia	-nia	-wa	-wa	-ria	-ia
!LO:LB:g=original	!	!	!	!	!	!
=7||	=7||	=7||	=7||	=7||	=7||	=7||
*>B	*	*	*	*	*	*
2r	.	.	.	.	.	.
2r	.	.	.	.	.	.
2ee\	kto-	.	Nie	.	W_kto-	.
=8	=8	=8	=8	=8	=8	=8
2dd\	-ra	.	tyl-	.	-rey	.
2dd\	nam	.	-ko	.	żÿć	.
2ee\	na	.	na	.	ÿ	.
=9	=9	=9	=9	=9	=9	=9
2dd\	zie-	.	Nie-	.	um-	.
2dd\	-mi	.	-bie	.	-rzeć	.
2cc\	to	.	a-	.	prag-	.
=10	=10	=10	=10	=10	=10	=10
2.ff\	ſzczę-	.	-le	.	-nie-	.
4ff\	-ſcie	.	tez	.	-my	.
4ee\	zaſ-	.	ÿ	.	ſer-	.
4ee\	-łu-	.	niſ-	.	-decz-	.
=11	=11	=11	=11	=11	=11	=11
2dd\	-zy-	.	-koſ-	.	-nie	.
1dd	-ła.	.	-ci	.	.	.
=12	=12	=12	=12	=12	=12	=12
2r	.	.	.	.	.	.
2r	.	.	.	.	.	.
2dd\	bij	.	ſwe	.	ÿ	.
=13	=13	=13	=13	=13	=13	=13
2.ee\	Mat-	.	zaw-	.	tym	.
4dd\	-ką	.	-ſze	.	kon-	.
2cc\	w_przod	.	ma	.	-czyć	.
!LO:LB:g=original	!	!	!	!	!	!
=14	=14	=14	=14	=14	=14	=14
2ff\	Boſ-	.	w_o-	.	zy-	.
2ff\	-ką	.	-pie-	.	-wot	.
2ee\	a	.	-ce	.	nasz	.
=15	=15	=15	=15	=15	=15	=15
2.dd\	po	.	al-	.	ſta-	.
4cc\	tym	.	-bo	.	-no-	.
4dd\	grzeſz-	.	o-	.	-wiem	.
4ee\	-nych	.	-patrz-	.	ſta-	.
=16	=16	=16	=16	=16	=16	=16
2cc\	bÿ-	.	-nos-	.	-tecz-	.
1cc	-ta	.	ci.	.	-nie.	.
!LO:PB:g=original	!	!	!	!	!	!
==	==	==	==	==	==	==
*-	*-	*-	*-	*-	*-	*-
!!!system-decoration: [(s1)]
!!!ENC: Tomasz Grochalski
!!!END: 2021-01-10
!!!ENC: Marta Chmielewska
!!!END: 2021-12-30
